public/assets/icons/diamond.svg

<svg width="56" height="56" viewBox="0 0 56 56" fill="none" xmlns="http://www.w3.org/2000/svg">
<path d="M55.7833 15.2695L46.4501 4.06963C46.2729 3.85777 46.0106 3.73462 45.7333 3.73462H10.2671C9.98994 3.73462 9.72766 3.8569 9.55026 4.06963L0.217089 15.2695C-0.0153296 15.5476 -0.0657508 15.9349 0.0882471 16.2625C0.242245 16.5901 0.571678 16.8001 0.933814 16.8001H55.0664C55.4285 16.8001 55.7579 16.5901 55.9119 16.2625C56.0652 15.9359 56.0157 15.5485 55.7833 15.2695ZM2.9266 14.9335L10.7039 5.60031H45.2956L53.0729 14.9335H2.9266Z" fill="#020F59"/>
<path d="M28.8632 4.30937C28.7185 3.96036 28.3779 3.73352 28.0008 3.73352H10.2677C9.93357 3.73352 9.62558 3.9118 9.45856 4.20208C9.29155 4.49235 9.29243 4.84793 9.46141 5.13722L15.9946 16.3371C16.1402 16.5862 16.3932 16.7552 16.6806 16.7925C16.7207 16.7972 16.7609 16.7999 16.8 16.7999C17.0465 16.7999 17.2845 16.7029 17.4609 16.5265L28.6607 5.32666C28.9276 5.05978 29.0079 4.65838 28.8632 4.30937ZM16.996 14.351L11.8917 5.6002H25.7468L16.996 14.351Z" fill="#020F59"/>
<path d="M55.9025 15.4526C55.7457 15.1343 55.4209 14.9327 55.0662 14.9327H0.933674C0.578975 14.9327 0.25512 15.1343 0.0974038 15.4526C-0.0594378 15.7709 -0.0230164 16.1507 0.192559 16.4326L27.2589 51.8988C27.4353 52.1302 27.7097 52.2665 28.0009 52.2665C28.292 52.2665 28.5664 52.1302 28.741 51.8988L55.8073 16.4326C56.0229 16.1507 56.0592 15.7709 55.9025 15.4526ZM28.0009 49.7951L2.8208 16.8004H53.181L28.0009 49.7951Z" fill="#020F59"/>
<path d="M28.8904 51.0514L17.6906 15.5852C17.5674 15.1969 17.208 14.9327 16.8002 14.9327H0.933674C0.578975 14.9327 0.25512 15.1343 0.0974038 15.4526C-0.0594378 15.7709 -0.0230164 16.1507 0.192559 16.4326L27.2589 51.8988C27.4399 52.1368 27.7172 52.2665 28.0009 52.2665C28.1465 52.2665 28.2939 52.2329 28.4302 52.1601C28.8326 51.9521 29.0266 51.4835 28.8904 51.0514ZM2.81993 16.8004H16.116L25.5015 46.5211L2.81993 16.8004Z" fill="#020F59"/>
<path d="M46.5422 4.20208C46.3761 3.9118 46.0672 3.73352 45.7331 3.73352H27.9999C27.6229 3.73352 27.2822 3.96036 27.1375 4.30937C26.9928 4.65838 27.0731 5.05978 27.3401 5.32666L38.5399 16.5265C38.7154 16.7029 38.9534 16.7999 39.1998 16.7999C39.2399 16.7999 39.2801 16.7971 39.3202 16.7925C39.6068 16.7552 39.8606 16.5872 40.0062 16.3371L46.5394 5.13722C46.7074 4.84793 46.7084 4.49235 46.5422 4.20208ZM39.0038 14.351L30.2529 5.6002H44.108L39.0038 14.351Z" fill="#020F59"/>
<path d="M55.9037 15.4544C55.7469 15.1361 55.4221 14.9346 55.0674 14.9346H39.2009C38.7931 14.9346 38.4328 15.1987 38.3105 15.587L27.1107 51.0532C26.9744 51.4844 27.1685 51.9529 27.5708 52.162C27.7071 52.2329 27.8545 52.2666 28.0001 52.2666C28.2829 52.2666 28.5601 52.1369 28.7421 51.9007L55.8084 16.4345C56.0241 16.1524 56.0604 15.7726 55.9037 15.4544ZM30.4987 46.5209L39.8842 16.8002H53.1803L30.4987 46.5209Z" fill="#020F59"/>
</svg>

<svg xmlns="http://www.w3.org/2000/svg" width="56" height="56" fill="none"><path fill="#020F59" d="M55.783 15.27 46.45 4.07a.935.935 0 0 0-.717-.335H10.267a.932.932 0 0 0-.717.335L.217 15.27a.93.93 0 0 0 .717 1.53h54.132a.935.935 0 0 0 .717-1.53Zm-52.856-.336L10.704 5.6h34.592l7.777 9.334H2.927Z"/><path fill="#020F59" d="M28.863 4.31a.933.933 0 0 0-.862-.576H10.268a.933.933 0 0 0-.807 1.403l6.534 11.2a.934.934 0 0 0 1.466.19l11.2-11.2a.933.933 0 0 0 .202-1.018ZM16.996 14.35l-5.104-8.75h13.855l-8.751 8.75Z"/><path fill="#020F59" d="M55.903 15.453a.933.933 0 0 0-.837-.52H.934a.934.934 0 0 0-.741 1.5l27.066 35.466a.933.933 0 0 0 1.482 0l27.066-35.466a.934.934 0 0 0 .096-.98ZM28 49.795 2.82 16.8h50.36l-25.18 32.995Z"/><path fill="#020F59" d="m28.89 51.051-11.2-35.466a.934.934 0 0 0-.89-.652H.934a.934.934 0 0 0-.741 1.5l27.066 35.466a.931.931 0 0 0 1.171.261.933.933 0 0 0 .46-1.109ZM2.82 16.801h13.296l9.386 29.72L2.82 16.801ZM46.542 4.202a.932.932 0 0 0-.809-.468H28a.934.934 0 0 0-.66 1.593l11.2 11.2a.93.93 0 0 0 .78.265.933.933 0 0 0 .686-.455l6.533-11.2a.935.935 0 0 0 .003-.935Zm-7.538 10.149-8.751-8.75h13.855l-5.104 8.75Z"/><path fill="#020F59" d="M55.904 15.454a.933.933 0 0 0-.837-.52H39.201a.933.933 0 0 0-.89.653l-11.2 35.466a.934.934 0 0 0 1.631.848l27.066-35.467a.934.934 0 0 0 .096-.98ZM30.499 46.521l9.385-29.72H53.18L30.5 46.52Z"/></svg>
